svgs/sharp-light/school-circle-exclamation.svg

<svg xmlns="http://www.w3.org/2000/svg" viewBox="0 0 640 512"><!--! Font Awesome Pro 6.6.0 by @fontawesome - https://fontawesome.com License - https://fontawesome.com/license (Commercial License) Copyright 2024 Fonticons, Inc. --><path d="M160 96L32 96 0 96l0 32L0 480l0 32 32 0 224 0 32 0 64 0 32 0 10.8 0c-12.9-9.1-24.5-19.9-34.6-32l-8.2 0-32 0-32 0 0-96c0-17.7 14.3-32 32-32l.7 0c1-10.9 2.9-21.5 5.8-31.7c-2.1-.2-4.3-.3-6.5-.3c-35.3 0-64 28.7-64 64l0 96L32 480l0-352 128 0c5.8 0 11.5-1.6 16.5-4.6L320 37.3l143.5 86.1c5 3 10.7 4.6 16.5 4.6l128 0 0 104.2c12.1 10 22.9 21.7 32 34.6L640 128l0-32-32 0L480 96 320 0 160 96zM340.3 285.8c16.5-31.3 42.2-57 73.5-73.5c1.4-6.5 2.2-13.3 2.2-20.3c0-53-43-96-96-96s-96 43-96 96s43 96 96 96c7 0 13.8-.7 20.3-2.2zM112 160l-16 0 0 16 0 96 0 16 16 0 64 0 16 0 0-16 0-96 0-16-16 0-64 0zm16 96l0-64 32 0 0 64-32 0zM96 320l0 16 0 96 0 16 16 0 64 0 16 0 0-16 0-96 0-16-16 0-64 0-16 0zm32 32l32 0 0 64-32 0 0-64zM320 128a64 64 0 1 1 0 128 64 64 0 1 1 0-128zm16 32l0-16-32 0 0 16 0 32 0 16 16 0 24 0 16 0 0-32-16 0-8 0 0-16zm48 208a112 112 0 1 1 224 0 112 112 0 1 1 -224 0zm256 0a144 144 0 1 0 -288 0 144 144 0 1 0 288 0zM512 288l-32 0 0 16 0 80 0 16 32 0 0-16 0-80 0-16zm0 160l0-32-32 0 0 32 32 0z"/></svg>

<svg xmlns="http://www.w3.org/2000/svg" viewBox="0 0 640 512"><!--! Font Awesome Pro 6.4.0 by @fontawesome - https://fontawesome.com License - https://fontawesome.com/license (Commercial License) Copyright 2023 Fonticons, Inc. --><path d="M160 96H32 0v32V480v32H32 256h32 64 32 10.8c-12.9-9.1-24.5-19.9-34.6-32H352 320 288V384c0-17.7 14.3-32 32-32l.7 0c1-10.9 2.9-21.5 5.8-31.7c-2.1-.2-4.3-.3-6.5-.3c-35.3 0-64 28.7-64 64v96H32V128H160c5.8 0 11.5-1.6 16.5-4.6L320 37.3l143.5 86.1c5 3 10.7 4.6 16.5 4.6H608V232.2c12.1 10 22.9 21.7 32 34.6V128 96H608 480L320 0 160 96zM340.3 285.8c16.5-31.3 42.2-57 73.5-73.5c1.4-6.5 2.2-13.3 2.2-20.3c0-53-43-96-96-96s-96 43-96 96s43 96 96 96c7 0 13.8-.7 20.3-2.2zM112 160H96v16 96 16h16 64 16V272 176 160H176 112zm16 96V192h32v64H128zM96 320v16 96 16h16 64 16V432 336 320H176 112 96zm32 32h32v64H128V352zM320 128a64 64 0 1 1 0 128 64 64 0 1 1 0-128zm16 32V144H304v16 32 16h16 24 16V176H344h-8V160zm48 208a112 112 0 1 1 224 0 112 112 0 1 1 -224 0zm256 0a144 144 0 1 0 -288 0 144 144 0 1 0 288 0zM512 288H480v16 80 16h32V384 304 288zm0 160V416H480v32h32z"/></svg>
